svg/filled/file.svg

<svg width="24" height="24" viewBox="0 0 24 24" fill="none" xmlns="http://www.w3.org/2000/svg">
<path fill-rule="evenodd" clip-rule="evenodd" d="M13 4H7.5C6.67157 4 6 4.67157 6 5.5V18.5C6 19.3284 6.67157 20 7.5 20H16.5C17.3284 20 18 19.3284 18 18.5V9.00001H17.9959L13 4ZM12.0001 5.60357V9.75001C12.0001 9.88809 12.112 10 12.2501 10H16.3965C16.6192 10 16.7308 9.73073 16.5733 9.57324L12.4268 5.42679C12.2693 5.2693 12.0001 5.38084 12.0001 5.60357Z" fill="black"/>
</svg>

<svg xmlns="http://www.w3.org/2000/svg" viewBox="0 0 24 24" fill="currentColor">
  <path fill-rule="evenodd" d="M13 4H7.5A1.5 1.5 0 006 5.5v13A1.5 1.5 0 007.5 20h9a1.5 1.5 0 001.5-1.5V9h-.004L13 4zm-1 1.604V9.75c0 .138.112.25.25.25h4.146a.25.25 0 00.177-.427l-4.146-4.146a.25.25 0 00-.427.177z" clip-rule="evenodd"/>
</svg>
